X:51
T:Ships Are Sailing, The
S:Setting from Alan Ng for teaching purposes
Z: id:ng-reels-51 transcribed by Alan Ng alan@alan-ng.nospam (net) 30 Sept 2004
M:C|
K:EDor
|Beed BcdB|ADFD ADFA|EDEF GFGA|Beef gfed|Beed BcdB|ADFD ADFA|E2EF GFGA|1Beed e2ed:|2Beed e2ef||\
|:gfga bgeg|fefg afdf|gfga bgeg|fedf e2ef|gfga bgeg|fefg afdf|g2bg f2af|1edef gfef:|2edef gfed|]*
